crates/pipeline/tests/fixtures/golden.pp3
# Generated by photopipe. Stacked on base.pp3; do not edit by hand.

[Exposure]
Auto=false
Compensation=0.750

[HLRecovery]
Enabled=true
Method=Coloropp

[Shadows & Highlights]
Enabled=true
Shadows=40
Highlights=0

[White Balance]
Enabled=true
Setting=Camera

[Directional Pyramid Denoising]
Enabled=true
Method=Lab
CMethod=MAN
Luma=30
Chroma=36

[PostDemosaicSharpening]
Enabled=true
AutoContrast=false
AutoRadius=false
Contrast=50
DeconvRadius=0.750

[LensProfile]
LcMode=lfauto
UseDistortion=true
UseVignette=true
UseCA=false
